X:38
T:Liverpool
Z: id:dc-hornpipe-34
M:C|
L:1/8
K:D Major
AG|FDFA dfaf|gfec dcBA|G2BG F2AF|EDEF GBAG|!
FDFA dfaf|gfec dcBA|dfaf bgec|d2dc d2:|!
(3ABc|d2fd c2ec|BABc dBAF|G2BG F2AF|EDEF GBAG|!
FDFA dfaf|gfec dcBA|dfaf bgec|d2dc d2:|!